X:10
%%pagewidth 900pt
%%score 1 2
T:Blow thy horn hunter
M:C
L:1/4
K:C
V:1 clef=treble
V:2 clef=bass
V:1
c c c2&[EG]2G2|e2cc&c2G2|eedd&c2G2|c3c&[EG]4|c>ccB&[C^F]2 [DG]2|A>AGG&[D^F]2B,x|
w:Blow thy horne hun-ter, Cum, blow thy horne on hye! In yonder* wode there lyeth a doo, In 
V:2
C,2 [E,C]2|[CE]2[E,C]2|[CE]2 [G,D]2|[C,,C,]2 [B,,,B,,]2|[A,,,A,,]2 [G,,,G,,]2|[D,,D,]2 [C,,C,]2|
V:1
cBAA&[CE]2 [C^F]2|[B,G]2[B,DG]2|c>cc2&[CG]4|[FB]2cc&x2[EG]2|c>c[GBd]G/A/&[EA]2x2|B/c/d/B/[Ec]2&F2x2||
w:fayth she woll not dye. Cum, blow thy horne, hun-ter, Cum, blow thy horne, joly* hun-***ter!
V:2
[A,,,A,,]2[D,,D,]2|[G,,G,]2[=F,,=F,]2|[E,,E,]4|[D,,D,]2[C,,C,]2|[A,,A,]2[G,,G,]2|[G,,G,]2[C,G,]2||

